static/icons/email.svg

<svg xmlns="http://www.w3.org/2000/svg" viewBox="0 0 24 24" fill="currentColor"><path d="M3 3H21C21.5523 3 22 3.44772 22 4V20C22 20.5523 21.5523 21 21 21H3C2.44772 21 2 20.5523 2 20V4C2 3.44772 2.44772 3 3 3ZM20 7.23792L12.0718 14.338L4 7.21594V19H20V7.23792ZM4.51146 5L12.0619 11.662L19.501 5H4.51146Z"></path></svg>

<svg xmlns="http://www.w3.org/2000/svg" fill="currentColor" viewBox="0 0 24 24"><path d="M3 3h18q1 0 1 1v16q0 1-1 1H3a1 1 0 0 1-1-1V4q0-1 1-1m17 4.2-8 7.1-8-7V19h16zM4.5 5l7.6 6.7L19.5 5z"/></svg>
